!!!!SEGMENT: pl-kk--kk-i-11--001-004_anonim--missa-o-admirabile-comercium-sanctus.krn
!!!cenid: 16xx:1235
!!!COM: Anonim
!!!COM-rismID: pe30004985
!!!CDT:
!!!CNT:
!!!OPR: Missa o Admirabile Comercium
!!!OTL: Sanctus
!!!OMV: 004
!!!PDT:
!!!AGN: Sacred; Mass
!!!SMS-siglum: PL-Kk
!!!SMS-shelfmark: Kk.I.11
!!!SMS-shelfwork: 001-004 M
!!!SMS-variant:
!!!SMS-altvar:
!!!NIFC-rismSourceID: 1001154115
!!!NIFC-rismChildID: 1001154125
!!!NIFC-islandoraID: pl-kk:2582
!!!URL-pdf-islandora: https://repozytorium.nifc.pl/islandora/object/pl-kk%3A2582/datastream/PDF/view
!!!URL-scan: https://polish.musicsources.pl/pl/lokalizacje/galeria/rekopisy/5745 @EN{Scan on Polish Music Sources Website} @PL{Skany w portalu Dziedzictwo Muzyki Polskiej w otwartym dostępie}
!!!ONB-nifc: UWAGA: części Mszy: 1. Kyrie, 2. Et in terra, 3. Patrem, 4. Sanctus, 5. Benedictus, 6. Agnus Dei. S (skan 0004-0008), T (0013-0016).
!!!AIN: 1 alto 1 bass 1 soprn 1 tenor
!!!key:
**kern	**kern	**text	**kern	**kern	**text
*part4	*par3	*part3	*part2	*part1	*part1
*staff4	*staff3	*staff3	*staff2	*staff1	*staff1
*ICvox	*ICvox	*	*ICvox	*ICvox	*
*Ibass	*Itenor	*	*Ialto	*Isoprn	*
*I"[Basso]	*I"[Tenore]	*	*I"[Alto]	*I"[Soprano]	*
*I'[B]	*I'[T]	*	*I'[A]	*I'[S]	*
*stria5	*	*	*stria5	*	*
*clefF4	*clefC4	*	*clefG2	*clefG2	*
*k[]	*k[]	*	*k[]	*k[]	*
*G:	*G:	*	*G:	*G:	*
*M2/2	*M2/2	*	*M2/2	*M2/2	*
*met(C|)	*met(C|)	*	*met(C|)	*met(C|)	*
=1-	=1-	=1-	=1-	=1-	=1-
*	*	*	*	*2\right	*
1ryy	00r	.	1ryy	00dd	San-
=2-	=2-	=2-	=2-	=2-	=2-
1ryy	.	.	1ryy	.	.
=3-	=3-	=3-	=3-	=3-	=3-
1ryy	.	.	1ryy	.	.
=4-	=4-	=4-	=4-	=4-	=4-
1ryy	.	.	1ryy	.	.
=5-	=5-	=5-	=5-	=5-	=5-
!	!LO:TX:t=P:problem:kreska pseudotaktowa	!	!	!LO:TX:t=P:problem:kreska pseudotaktowa	!
1ryy	00r	.	1ryy	0dd	-ctus
=6-	=6-	=6-	=6-	=6-	=6-
1ryy	.	.	1ryy	.	.
=7-	=7-	=7-	=7-	=7-	=7-
*	*	*	*	*	*ij
1ryy	.	.	1ryy	0ee	San-
=8-	=8-	=8-	=8-	=8-	=8-
1ryy	.	.	1ryy	.	.
=9-	=9-	=9-	=9-	=9-	=9-
!	!	!	!	!LO:TX:t=P:problem:kreska pseudotaktowa	!
1ryy	1d	Sanc-	1ryy	00dd	-ctus
*	*	*	*	*	*Xij
=10-	=10-	=10-	=10-	=10-	=10-
1ryy	1A	.	1ryy	.	.
=11-	=11-	=11-	=11-	=11-	=11-
1ryy	2.G/	.	1ryy	.	.
!	!LO:TX:t=P:problem:kreska pseudotaktowa	!	!	!	!
.	4A\	.	.	.	.
=12-	=12-	=12-	=12-	=12-	=12-
1ryy	4B\	.	1ryy	.	.
.	4c\	.	.	.	.
.	4d\	.	.	.	.
.	4B\	.	.	.	.
=13-	=13-	=13-	=13-	=13-	=13-
!	!LO:TX:t=P:problem:kreska pseudotaktowa	!	!	!	!
1ryy	0c	.	1ryy	2.gg\	ſan-
!	!	!	!	!LO:TX:t=P:problem:kreska pseudotaktowa	!
.	.	.	.	4ff\	.
=14-	=14-	=14-	=14-	=14-	=14-
1ryy	.	.	1ryy	4ee\	.
.	.	.	.	4dd\	.
.	.	.	.	4cc\	.
!	!	!	!	!LO:TX:t=P:problem:kreska pseudotaktowa	!
.	.	.	.	4b/	.
=15-	=15-	=15-	=15-	=15-	=15-
*	*2\right	*	*	*	*
1ryy	2.c\	.	1ryy	2.a/	.
.	4B\	.	.	4b\	.
=16-	=16-	=16-	=16-	=16-	=16-
!	!	!	!	!LO:TX:t=P:problem:kreska pseudotaktowa	!
1ryy	4A/	.	1ryy	1cc	.
.	4G/	.	.	.	.
!	!LO:TX:t=P:problem:kreska pseudotaktowa	!	!	!	!
.	2G/	.	.	.	.
=17-	=17-	=17-	=17-	=17-	=17-
!	!	!	!	!LO:TX:t=P:problem:kreska pseudotaktowa	!
1ryy	2c\	.	1ryy	0dd	-ctus
.	4d\	.	.	.	.
.	4c\	.	.	.	.
=18-	=18-	=18-	=18-	=18-	=18-
!	!LO:TX:t=P:problem:kreska pseudotaktowa	!	!	!	!
1ryy	1B	.	1ryy	.	.
=19-	=19-	=19-	=19-	=19-	=19-
1ryy	2G/	.	1ryy	2r	.
.	2.c\	.	.	2.ee\	Do-
=20-	=20-	=20-	=20-	=20-	=20-
1ryy	.	.	1ryy	.	.
.	4G/	.	.	4ee\	-mi-
!	!	!	!	!LO:LB:g=original	!
!	!LO:TX:t=P:problem:kreska pseudotaktowa	!	!	!LO:TX:t=P:problem:kreska pseudotaktowa	!
.	2G/	.	.	2ee\	-nus
=21-	=21-	=21-	=21-	=21-	=21-
!	!LO:TX:t=P:problem:kreska pseudotaktowa	!	!	!	!
1ryy	1A	-tuſ	1ryy	1ff	De-
=22-	=22-	=22-	=22-	=22-	=22-
1ryy	2c\	Sanc-	1ryy	2ee\	-us
.	4A\	.	.	1ff\	ſab-
.	4B\	.	.	.	.
=23-	=23-	=23-	=23-	=23-	=23-
1ryy	4c\	.	1ryy	.	.
.	4d\	.	.	.	.
!	!LO:TX:t=P:problem:kreska pseudotaktowa	!	!	!LO:TX:t=P:problem:kreska pseudotaktowa	!
.	2c\	.	.	2ee\	.
=24-	=24-	=24-	=24-	=24-	=24-
!	!LO:TX:t=P:problem:kreska pseudotaktowa	!	!	!	!
1ryy	1c	.	1ryy	2dd\	.
!	!	!	!	!LO:TX:t=P:problem:kreska pseudotaktowa	!
.	.	.	.	2cc\	-ba-
=25-	=25-	=25-	=25-	=25-	=25-
!	!	!	!	!LO:TX:t=P:problem:kreska pseudotaktowa	!
1ryy	2B\	-t(us)	1ryy	0b	-oth
.	2.B\	D(o-	.	.	.
=26-	=26-	=26-	=26-	=26-	=26-
1ryy	.	.	1ryy	.	.
.	4G/	-mi-	.	.	.
!	!LO:TX:t=P:problem:kreska pseudotaktowa	!	!	!	!
.	2B\	-nus)	.	.	.
!	!LO:LB:g=original	!	!	!	!
=27-	=27-	=27-	=27-	=27-	=27-
!	!LO:TX:t=P:problem:kreska pseudotaktowa	!	!	!	!
1ryy	1c	De-	1ryy	00r	.
=28-	=28-	=28-	=28-	=28-	=28-
1ryy	2G/	-uſ	1ryy	.	.
.	1c	.	.	.	.
=29-	=29-	=29-	=29-	=29-	=29-
1ryy	.	.	1ryy	.	.
.	2G/	Sab-	.	.	.
=30-	=30-	=30-	=30-	=30-	=30-
1ryy	1.A	-ba-	1ryy	.	.
=31-	=31-	=31-	=31-	=31-	=31-
1ryy	.	.	1ryy	0r	.
!	!LO:TX:t=P:problem:kreska pseudotaktowa	!	!	!	!
.	2A/	-oth	.	.	.
=32-	=32-	=32-	=32-	=32-	=32-
1ryy	4E/	De-	1ryy	.	.
.	4F/	.	.	.	.
.	4G/	.	.	.	.
.	4A/	.	.	.	.
=33-	=33-	=33-	=33-	=33-	=33-
1ryy	2F/	-uſ	1ryy	1r	.
.	1B\	Sab-	.	.	.
=34-	=34-	=34-	=34-	=34-	=34-
!	!	!	!	!LO:TX:t=P:problem:kreska pseudotaktowa	!
!	!	!	!	!LO:TX:t=P:problem:brak puazy 1r	!
1ryy	.	.	1ryy	1ryy	.
.	2G/	-ba-	.	.	.
=35-	=35-	=35-	=35-	=35-	=35-
!	!LO:TX:t=P:problem:kreska pseudotaktowa	!	!	!	!
1ryy	0B	-oth	1ryy	2r	.
.	.	.	.	2.dd\	Do-
=36-	=36-	=36-	=36-	=36-	=36-
1ryy	.	.	1ryy	.	.
.	.	.	.	4dd\	-mi-
!	!	!	!	!LO:TX:t=P:problem:kreska pseudotaktowa	!
.	.	.	.	2dd\	-nus
=37-	=37-	=37-	=37-	=37-	=37-
1ryy	2r	.	1ryy	1ee	De-
.	2.c\	D(o-	.	.	.
=38-	=38-	=38-	=38-	=38-	=38-
1ryy	.	.	1ryy	2dd\	-us
.	4G/	-mi-	.	.	.
.	1c\	-nus)	.	1ee\	ſab-
=39-	=39-	=39-	=39-	=39-	=39-
1ryy	.	.	1ryy	.	.
!	!LO:TX:t=P:problem:kreska pseudotaktowa	!	!	!LO:TX:t=P:problem:kreska pseudotaktowa	!
.	2B\	D(e-	.	2dd\	.
=40-	=40-	=40-	=40-	=40-	=40-
*	*	*	*	*lig	*
1ryy	1c	-us)	1ryy	1cc	-ba-
=41-	=41-	=41-	=41-	=41-	=41-
!	!	!	!	!LO:TX:t=P:problem:kreska pseudotaktowa	!
1ryy	1G	Sab-	1ryy	1b	.
*	*	*	*	*Xlig	*
*	*	*	*	*custos:a	*
!	!	!	!	!LO:LB:g=original	!
=42-	=42-	=42-	=42-	=42-	=42-
*	*	*	*	*lig	*
1ryy	2c\	-ba-	1ryy	1a	-oth
!	!LO:TX:t=P:problem:kreska pseudotaktowa	!	!	!	!
.	2d\	.	.	.	.
=43-	=43-	=43-	=43-	=43-	=43-
!	!	!	!	!LO:TX:t=P:problem:kreska pseudotaktowa	!
1ryy	2G/	-oth	1ryy	1g	.
.	2r	.	.	.	.
*	*	*	*	*Xlig	*
=44-	=44-	=44-	=44-	=44-	=44-
1ryy	00r	.	1ryy	2r	.
*	*	*	*	*	*ij
.	.	.	.	2dd\	Do-
=45-	=45-	=45-	=45-	=45-	=45-
1ryy	.	.	1ryy	2cc\	-mi-
!	!	!	!	!LO:TX:t=P:problem:kreska pseudotaktowa	!
.	.	.	.	2a/	-nus
=46-	=46-	=46-	=46-	=46-	=46-
1ryy	.	.	1ryy	2b/	De-
.	.	.	.	4a/	.
!	!	!	!	!LO:TX:t=P:problem:kreska pseudotaktowa	!
.	.	.	.	4b/	.
=47-	=47-	=47-	=47-	=47-	=47-
1ryy	.	.	1ryy	4cc\	.
.	.	.	.	4a/	.
.	.	.	.	4b/	.
!	!	!	!	!LO:TX:t=P:problem:kreska pseudotaktowa	!
.	.	.	.	4cc\	.
=48-	=48-	=48-	=48-	=48-	=48-
1ryy	00r	.	1ryy	1dd	.
=49-	=49-	=49-	=49-	=49-	=49-
1ryy	.	.	1ryy	2cc\	.
!	!	!	!	!LO:TX:t=P:problem:kreska pseudotaktowa	!
.	.	.	.	2cc\	-us
*	*	*	*	*	*Xij
=50-	=50-	=50-	=50-	=50-	=50-
1ryy	.	.	1ryy	2b/	.
.	.	.	.	4cc\	ſab-
!	!	!	!	!LO:TX:t=P:problem:kreska pseudotaktowa	!
.	.	.	.	4dd\	.
=51-	=51-	=51-	=51-	=51-	=51-
1ryy	.	.	1ryy	4ee\	.
.	.	.	.	4cc\	.
.	.	.	.	1ff\	.
*	*	*	*	*custos:dd	*
!	!	!	!	!LO:LB:g=original	!
=52-	=52-	=52-	=52-	=52-	=52-
1ryy	0r	.	1ryy	.	.
!	!	!	!	!LO:TX:t=P:problem:kreska pseudotaktowa	!
.	.	.	.	2dd\	.
=53-	=53-	=53-	=53-	=53-	=53-
1ryy	.	.	1ryy	2.dd\	.
.	.	.	.	4cc\	-ba-
=54-	=54-	=54-	=54-	=54-	=54-
!	!LO:TX:t=P:problem:kreska pseudotaktowa	!	!	!LO:TX:t=P:problem:kreska pseudotaktowa	!
1ryy	1r	.	1ryy	0b	-oth
=55-	=55-	=55-	=55-	=55-	=55-
1ryy	2r	.	1ryy	.	.
!	!LO:TX:t=P:problem:kreska pseudotaktowa	!	!	!	!
.	2d\	Ple-	.	.	.
=56-	=56-	=56-	=56-	=56-	=56-
1ryy	2B\	-ni	1ryy	00r	.
!	!LO:TX:t=P:problem:kreska pseudotaktowa	!	!	!	!
.	2G/	ſ(un)t	.	.	.
!	!LO:LB:g=original	!	!	!	!
=57-	=57-	=57-	=57-	=57-	=57-
1ryy	2G/	Cae-	1ryy	.	.
.	1c\	-li	.	.	.
=58-	=58-	=58-	=58-	=58-	=58-
1ryy	.	.	1ryy	.	.
!	!LO:TX:t=P:problem:kreska pseudotaktowa	!	!	!	!
.	2B\	et	.	.	.
=59-	=59-	=59-	=59-	=59-	=59-
1ryy	4G/	ter-	1ryy	.	.
.	4A/	.	.	.	.
.	4B\	.	.	.	.
.	4d\	.	.	.	.
=60-	=60-	=60-	=60-	=60-	=60-
1ryy	4c\	.	1ryy	0r	.
.	4B\	.	.	.	.
!	!LO:TX:t=P:problem:kreska pseudotaktowa	!	!	!	!
.	2A/	.	.	.	.
=61-	=61-	=61-	=61-	=61-	=61-
1ryy	1G	.	1ryy	.	.
=62-	=62-	=62-	=62-	=62-	=62-
1ryy	2A/	.	1ryy	2r	.
!	!LO:TX:t=P:problem:kreska pseudotaktowa	!	!	!LO:TX:t=P:problem:kreska pseudotaktowa	!
.	2c\	.	.	2cc\	Ple-
=63-	=63-	=63-	=63-	=63-	=63-
1ryy	1c	.	1ryy	2cc\	-ni
!	!	!	!	!LO:TX:t=P:problem:kreska pseudotaktowa	!
.	.	.	.	2cc\	ſu(n)t
=64-	=64-	=64-	=64-	=64-	=64-
1ryy	2c\	.	1ryy	1.ff	cae-
!	!LO:TX:t=P:problem:kreska pseudotaktowa	!	!	!	!
.	2B\	-ra	.	.	.
=65-	=65-	=65-	=65-	=65-	=65-
1ryy	2c\	.	1ryy	.	.
!	!LO:TX:t=P:problem:kreska pseudotaktowa	!	!	!LO:TX:t=P:problem:kreska pseudotaktowa	!
.	2r	.	.	2ee\	-li
=66-	=66-	=66-	=66-	=66-	=66-
!	!LO:TX:a:t=9	!	!	!	!
1ryy	00r	.	1ryy	2ee\	et
.	.	.	.	1ee\	ter-
=67-	=67-	=67-	=67-	=67-	=67-
1ryy	.	.	1ryy	.	.
.	.	.	.	4dd\	.
!	!	!	!	!LO:TX:t=P:problem:kreska pseudotaktowa	!
.	.	.	.	4cc\	.
=68-	=68-	=68-	=68-	=68-	=68-
1ryy	.	.	1ryy	2dd\	.
.	.	.	.	2.ee\	.
=69-	=69-	=69-	=69-	=69-	=69-
1ryy	.	.	1ryy	.	.
.	.	.	.	4dd\	.
.	.	.	.	1cc	.
=70-	=70-	=70-	=70-	=70-	=70-
1ryy	00r	.	1ryy	.	.
!	!	!	!	!LO:TX:t=P:problem:kreska pseudotaktowa	!
.	.	.	.	2b/	-ra
*	*	*	*	*custos:cc	*
!	!	!	!	!LO:LB:g=original	!
=71-	=71-	=71-	=71-	=71-	=71-
1ryy	.	.	1ryy	1cc	glo-
=72-	=72-	=72-	=72-	=72-	=72-
1ryy	.	.	1ryy	2dd\	-ri-
!	!	!	!	!LO:TX:t=P:problem:kreska pseudotaktowa	!
.	.	.	.	2ee\	-a
=73-	=73-	=73-	=73-	=73-	=73-
1ryy	.	.	1ryy	1cc	tu-
=74-	=74-	=74-	=74-	=74-	=74-
!	!	!	!	!LO:TX:t=P:problem:kreska pseudotaktowa	!
1ryy	1r	.	1ryy	1b	-a
=75-	=75-	=75-	=75-	=75-	=75-
1ryy	1e	Cae-	1ryy	2r	.
!	!	!	!	!LO:TX:t=P:problem:kreska pseudotaktowa	!
.	.	.	.	2cc\	glo-
=76-	=76-	=76-	=76-	=76-	=76-
1ryy	2B\	-li	1ryy	2dd\	-ri-
!	!LO:TX:t=P:problem:kreska pseudotaktowa	!	!	!	!
.	2G/	et	.	2ee\	-a
!	!LO:LB:g=original	!	!	!	!
=77-	=77-	=77-	=77-	=77-	=77-
!	!	!	!	!LO:TX:t=P:problem:kreska pseudotaktowa	!
1ryy	1A	ter-	1ryy	1cc	tu-
=78-	=78-	=78-	=78-	=78-	=78-
!	!LO:TX:t=P:problem:kreska pseudotaktowa	!	!	!	!
1ryy	1B	-ra	1ryy	1.b	-a
=79-	=79-	=79-	=79-	=79-	=79-
1ryy	0r	.	1ryy	.	.
!	!	!	!	!LO:TX:t=P:problem:kreska pseudotaktowa	!
.	.	.	.	2a/	glo-
=80-	=80-	=80-	=80-	=80-	=80-
1ryy	.	.	1ryy	2b/	-ri-
.	.	.	.	2cc\	-a
=81-	=81-	=81-	=81-	=81-	=81-
!	!LO:TX:t=P:problem:kreska pseudotaktowa	!	!	!	!
1ryy	1r	.	1ryy	1a	tu-
=82-	=82-	=82-	=82-	=82-	=82-
!	!	!	!	!LO:TX:t=P:problem:kreska pseudotaktowa	!
1ryy	4B\	glo-	1ryy	1g	-a
.	4A\	.	.	.	.
.	4G\	.	.	.	.
.	4F\	.	.	.	.
=83-	=83-	=83-	=83-	=83-	=83-
1ryy	2F/	-ri-	1ryy	2r	.
!	!LO:TX:t=P:problem:kreska pseudotaktowa	!	!	!LO:TX:t=P:problem:kreska pseudotaktowa	!
.	2B\	-a	.	2g/	glo-
=84-	=84-	=84-	=84-	=84-	=84-
1ryy	1G	tu-	1ryy	2b/	-ri-
*	*	*	*	*custos:cc	*
!	!	!	!	!LO:LB:g=origianal	!
!	!	!	!	!LO:TX:t=P:problem:kreska pseudotaktowa	!
.	.	.	.	2cc\	-a
=85-	=85-	=85-	=85-	=85-	=85-
!	!LO:TX:t=P:problem:kreska pseudotaktowa	!	!	!	!
1ryy	1A	-a	1ryy	1dd	tu-
=86-	=86-	=86-	=86-	=86-	=86-
!	!	!	!	!LO:TX:t=P:problem:kreska pseudotaktowa	!
1ryy	2r	.	1ryy	1b	-a
.	2B\	glo-	.	.	.
=87-	=87-	=87-	=87-	=87-	=87-
1ryy	2c\	-ri-	1ryy	0r	.
!	!LO:TX:t=P:problem:kreska pseudotaktowa	!	!	!	!
.	2B\	-a	.	.	.
=88-	=88-	=88-	=88-	=88-	=88-
1ryy	1c	tu-	1ryy	.	.
=89-	=89-	=89-	=89-	=89-	=89-
1ryy	0B	-a	1ryy	1r	.
=90-	=90-	=90-	=90-	=90-	=90-
1ryy	.	.	1ryy	2r	.
!	!	!	!	!LO:TX:t=P:problem:kreska pseudotaktowa	!
.	.	.	.	2dd\	o-
=91-	=91-	=91-	=91-	=91-	=91-
1ryy	00r	.	1ryy	2g/	-ſan-
.	.	.	.	2a/	-na
=92-	=92-	=92-	=92-	=92-	=92-
1ryy	.	.	1ryy	2b/	in
!	!	!	!	!LO:TX:t=P:problem:kreska pseudotaktowa	!
.	.	.	.	2cc\	ex-
=93-	=93-	=93-	=93-	=93-	=93-
1ryy	.	.	1ryy	4dd\	-cel-
.	.	.	.	4cc\	.
.	.	.	.	4b/	.
.	.	.	.	8a/L	.
!	!	!	!	!LO:TX:t=P:problem:kreska pseudotaktowa	!
.	.	.	.	8g/J	.
=94-	=94-	=94-	=94-	=94-	=94-
1ryy	.	.	1ryy	1a	.
=95-	=95-	=95-	=95-	=95-	=95-
!	!	!	!	!LO:TX:t=P:problem:kreska pseudotaktowa	!
1ryy	2r	.	1ryy	1b	-ſis
!	!LO:TX:t=P:problem:kreska pseudotaktowa	!	!	!	!
.	2d\	O-	.	.	.
=96-	=96-	=96-	=96-	=96-	=96-
1ryy	2c\	-ſan-	1ryy	2r	.
!	!LO:TX:t=P:problem:kreska pseudotaktowa	!	!	!	!
.	2B\	-na	.	2dd\	o-
=97-	=97-	=97-	=97-	=97-	=97-
1ryy	2G/	in	1ryy	2g/	-ſan-
!	!	!	!	!LO:TX:t=P:problem:kreska pseudotaktowa	!
.	2c\	ex-	.	2a/	-na
=98-	=98-	=98-	=98-	=98-	=98-
1ryy	4d\	-cel-	1ryy	2b/	in
.	4c\	.	.	.	.
!	!	!	!	!LO:LB:g=original	!
.	4B\	.	.	1cc\	ex-
!	!LO:TX:t=P:problem:kreska pseudotaktowa	!	!	!	!
.	4A\	.	.	.	.
=99-	=99-	=99-	=99-	=99-	=99-
1ryy	4G\	.	1ryy	.	.
.	4A\	.	.	.	.
!	!	!	!	!LO:TX:t=P:problem:kreska pseudotaktowa	!
.	4B\	.	.	2b/	-cel-
.	8c\L	.	.	.	.
!	!LO:TX:t=P:problem:kreska pseudotaktowa	!	!	!	!
.	8d\J	.	.	.	.
!	!LO:LB:g=original	!	!	!	!
=100-	=100-	=100-	=100-	=100-	=100-
1ryy	1.c	-sis	1ryy	2.cc\	.
.	.	.	.	4b/	.
=101-	=101-	=101-	=101-	=101-	=101-
1ryy	.	.	1ryy	2a/	.
!	!LO:TX:t=P:problem:kreska pseudotaktowa	!	!	!LO:TX:t=P:problem:kreska pseudotaktowa	!
.	2G/	O-	.	2g/s	.
=102-	=102-	=102-	=102-	=102-	=102-
1ryy	1A	-ſan-	1ryy	1a	.
=103-	=103-	=103-	=103-	=103-	=103-
!	!LO:TX:t=P:problem:kreska pseudotaktowa	!	!	!LO:TX:t=P:problem:kreska pseudotaktowa	!
1ryy	1B	-na	1ryy	1dd	-ſis
=104-	=104-	=104-	=104-	=104-	=104-
1ryy	1.c	in	1ryy	2r	.
!	!	!	!	!LO:TX:t=P:problem:kreska pseudotaktowa	!
.	.	.	.	2gg\	o-
=105-	=105-	=105-	=105-	=105-	=105-
1ryy	.	.	1ryy	2cc\	-ſan-
.	2B\	ex-	.	2dd\	-na
=106-	=106-	=106-	=106-	=106-	=106-
1ryy	0c	-cel-	1ryy	2ee\	in
!	!	!	!	!LO:TX:t=P:problem:kreska pseudotaktowa	!
.	.	.	.	2ee\	ex-
=107-	=107-	=107-	=107-	=107-	=107-
1ryy	.	.	1ryy	1cc	-cel-
=108-	=108-	=108-	=108-	=108-	=108-
0ryy	0B	-ſis	0ryy	0dd	-ſis.
==	==	==	==	==	==
*-	*-	*-	*-	*-	*-
!!!system-decoration: [(s1,s2,s3,s4)]
!!!RDF**kern: i = editorial accidental
!!!RDF**kern: > = above
!!!RDF**kern: < = below
!!!RDF**kern: N = linked
!!!RDF**dynam: > = "dim.", fontstyle= "italic"
!!!RDF**kern: | = vertical stroke
!!!ENC: Berenika Jozajtis
!!!EED: Katarzyna Serwa
!!!END: 2023-07-10
!!!EEV: 2024-05-07
!!!YEC: Copyright 2022 Narodowy Instytut Fryderyka Chopina (https://polishscores.org)
!!!YEM: License CC-BY-4.0 (https://creativecommons.org/licenses/by/4.0)
